///////PUERTOS Y MONITOREO DE MENSAJES
thisProcess.openPorts; // abre el puerto
NetAddr.localAddr;// muestra el puerto de recepción y la dirección local
OSCFunc.trace(true); // activa monitoreo de mensajes osc
OSCFunc.trace(false); // desactiva monitoreo de mensajes osc














